resources/images/vector-2022-beta-preview-rtl.svg

<svg xmlns="http://www.w3.org/2000/svg" width="794" height="488" fill="none" viewBox="0 0 794 488">
	<g clip-path="url(#clip0_4_65)">
		<mask id="mask0_4_65" width="794" height="488" x="0" y="0" maskUnits="userSpaceOnUse" style="mask-type:luminance">
			<path fill="#fff" d="M794 0v457.877L757.91 488l-36.092-30.123L685.728 488l-36.092-30.123L613.546 488l-36.091-30.123L541.364 488l-36.091-30.123L469.182 488l-36.091-30.123L397 488l-36.09-30.123L324.817 488l-36.09-30.123L252.635 488l-36.09-30.123L180.454 488l-36.091-30.123L108.273 488l-36.091-30.123L36.09 488 0 457.877V0z"/>
		</mask>
		<g mask="url(#mask0_4_65)">
			<path fill="#fff" d="M794 0H0v488h794"/>
			<path fill="#EAECF0" d="M760.917 66.272c0-24.1-18.046-42.173-42.106-42.173s-42.106 18.074-42.106 42.173c0 24.098 18.045 42.172 42.106 42.172 24.06 0 42.106-18.074 42.106-42.172m-81.205 69.284v-15.062h75.19v15.062zm0 355.456V174.716h75.19v319.309h-75.19M93.235 15.062H15.038v18.074h78.197zm72.182 0H99.25v18.074h66.167zm72.181 0h-66.166v18.074h66.166zm69.175 0h-39.099v18.074h39.099zm-45.114 0h-18.045v18.074h18.045zm69.174 0h-18.045v18.074h18.045zM18.045 48.197v12.05h276.697v-12.05zm-3.007-3.012H297.75V63.26H15.038z"/>
			<path fill="#EAECF0" d="M288.727 51.21h-6.015v6.025h6.015z"/>
			<path fill="#EAECF0" d="M794 0v488H0V0zm-3.008 3.012H3.008V456.47l33.083 27.611 36.091-30.123 36.091 30.123 36.091-30.123 36.091 30.123 36.09-30.123 36.091 30.123 36.091-30.123 36.091 30.123 36.091-30.123L397 484.081l36.091-30.123 36.091 30.123 36.091-30.123 36.091 30.123 36.091-30.123 36.09 30.123 36.091-30.123 36.091 30.123 36.091-30.123 36.091 30.123 33.083-27.614z"/>
			<path fill="#EAECF0" stroke="#EAECF0" stroke-linecap="round" stroke-width="1.214" d="M586.851 145.31h-65.455V157h65.455zM295.207 145h-65.452v11.69h65.452z"/>
			<path fill="#C8CCD1" stroke="#C8CCD1" stroke-linecap="round" stroke-width="2.158" d="M645.561 87.358h-126.52v20.785h126.52z"/>
			<path fill="#F9F9F9" stroke="#E6E6E6" stroke-width="3" d="M176.911 176.5h462.783c3.759 0 6.806 3.806 6.806 8.5v14.582c0 4.694-3.047 8.5-6.806 8.5H176.911c-3.759 0-6.806-3.806-6.806-8.5V185c0-4.694 3.047-8.5 6.806-8.5Zm0 219h462.783c3.759 0 6.806 3.806 6.806 8.5v14.582c0 4.694-3.047 8.5-6.806 8.5H176.911c-3.759 0-6.806-3.806-6.806-8.5V404c0-4.694 3.047-8.5 6.806-8.5Z"/>
			<path fill="#E6E6E6" d="M645 179h-3v27h3zm0 219h-3v27h3z"/>
			<path fill="#C4C4C4" d="M638.254 199.874h-15.602v-5.75h15.602zm-177.728-10.538h-15.602v-5.75h15.602zm-18.993 0h-24.42v-5.75h24.42zm-131.602 0h-70.412v-5.75h70.412zm103.79 0H313.325v-5.75h100.396zm-31.209 10.538h-16.959v-5.75h16.959zm-20.35 0h-16.959v-5.75h16.959zm-20.351 0H330.28v-5.75h11.531zm-14.925 0H305.18v-5.75h21.706zm-25.095 0h-18.993v-5.75h18.993zm153.982 0h-69.869v-5.75h69.869zm-219.548-10.538h-16.959v-5.75h16.959zm-20.35 0h-16.959v-5.75h16.959zm-20.35 0h-11.532v-5.75h11.532zm369.468 0h-16.959v-5.75h16.959zm-20.35 0h-16.959v-5.75h16.959zm-20.351 0H512.76v-5.75h11.532zm-14.925 0H487.66v-5.75h21.707zm-25.095 0h-18.993v-5.75h18.993zm134.989 10.538h-24.42v-5.75h24.42zm-131.602 0h-27.134v-5.75h27.134zm103.789 0H491.053v-5.75h100.395zm46.806-10.538h-69.869v-5.75h69.869zm0 229.538h-15.602v-5.75h15.602zm-177.728-10.538h-15.602v-5.75h15.602zm-18.993 0h-24.42v-5.75h24.42zm-131.602 0h-70.412v-5.75h70.412zm103.79 0H313.325v-5.75h100.396zm-31.209 10.538h-16.959v-5.75h16.959zm-20.35 0h-16.959v-5.75h16.959zm-20.351 0H330.28v-5.75h11.531zm-14.925 0H305.18v-5.75h21.706zm-25.095 0h-18.993v-5.75h18.993zm153.982 0h-69.869v-5.75h69.869zm-219.548-10.538h-16.959v-5.75h16.959zm-20.35 0h-16.959v-5.75h16.959zm-20.35 0h-11.532v-5.75h11.532zm369.468 0h-16.959v-5.75h16.959zm-20.35 0h-16.959v-5.75h16.959zm-20.351 0H512.76v-5.75h11.532zm-14.925 0H487.66v-5.75h21.707zm-25.095 0h-18.993v-5.75h18.993zm134.989 10.538h-24.42v-5.75h24.42zm-131.602 0h-27.134v-5.75h27.134zm103.789 0H491.053v-5.75h100.395zm46.806-10.538h-69.869v-5.75h69.869zm-78.178-71.846h-12.432v-6h12.432zm-43.512 0H340.982v-6h175.582zm0-26h-173.51v-6h173.51zm-11.741 13h-173.51v-6h173.51zm133.295 13h-43.511v-6h43.511zm0-26h-43.511v-6h43.511zm-105.669 13h-24.172v-6h24.172zm58.705 13h-27.626v-6h27.626zm-46.964 0h-24.172v-6h24.172zm93.928-13H535.902v-6h102.216zm-46.964-13h-71.136v-6h71.136zm46.965-13h-15.886v-6h15.886zm-78.044-39h-12.432v-6h12.432zm78.044-26h-15.886v-6h15.886zm-74.591 52h-17.266v-6h17.266zm-20.72 0h-17.267v-6h17.267zm-20.718 0h-11.741v-6h11.741zm-15.195 0H354.794v-6h152.101zm56.633-13H447.945v-6h115.583zm-46.965-13H340.981v-6h175.582zm93.929 13h-43.511v-6h43.511zm-93.929-39h-173.51v-6h173.51zm-11.74 13H331.312v-6h173.511zm133.296 13h-43.511v-6h43.511zm0 13h-24.173v-6h24.173zm-19.34-39h-24.172v-6h24.172zm-86.33 13h-24.172v-6h24.172zm58.705 13h-27.626v-6h27.626zm-46.964 0h-24.172v-6h24.172zm-192.849 26h-19.339v-6h19.339zm267.438 13h-24.863v-6h24.863zm-263.985 0h-27.626v-6h27.626zm235.67 0H358.248v-6h232.216zm47.655-52H535.903v-6h102.216zm0 39h-71.137v-6h71.137zm-46.965-52h-71.136v-6h71.136zm46.964 143h-15.885v-6h15.885zm-74.591-13h-17.266v-6h17.266zm-20.719 0h-17.267v-6h17.267zm-20.718 0h-11.741v-6h11.741zm-15.196 0H354.793v-6h152.101zm-155.553 0h-19.339v-6h19.339zm267.438 13h-24.863v-6h24.863zm-263.986 0h-27.626v-6h27.626zm235.671 0H358.248v-6h232.216zm47.654-13h-71.137v-6h71.137z"/>
		</g>
		<rect width="127.794" height="164.662" x="-1.5" y="1.5" fill="#F9F9F9" stroke="#E6E6E6" stroke-width="3" rx="10.5" transform="matrix(-1 0 0 1 297.899 218.153)"/>
		<rect width="127.794" height="177.836" x="-1.5" y="1.5" fill="#F9F9F9" stroke="#36C" stroke-width="3" rx="10.5" transform="matrix(-1 0 0 1 148.741 174.777)"/>
		<path fill="#EAECF0" d="M284.065 231.024h-95.293v53.142h95.293z"/>
		<path fill="#C4C4C4" d="M284.065 303.217h-95.293v6h95.293zm0 12.074h-48.669v6h48.669zm0 12.074h-90.034v6h90.034zM141.827 185.127H51.793v6h90.034zm-13.981 18.377H88.078v6h39.768zm0 15.058H88.078v6h39.768zm0 51.728H88.078v6h39.768zm0 52.515H88.078v6h39.768zm0-88.866H88.078v6h39.768zm0 51.728H88.078v6h39.768zm0 52.514H88.078v6h39.768zm13.981-81.366H64.094v6h77.733zm0 52.328H36.268v6h105.559zm142.238 30.296h-33.732v6h33.732zm0 12.074h-48.669v6h48.669zm0 12.074h-33.732v6h33.732zm-39.809 0h-33.732v6h33.732z"/>
		<circle cx="4.5" cy="4.5" r="4.5" fill="#D9D9D9" transform="matrix(-1 0 0 1 140.681 202.004)"/>
		<circle cx="4.5" cy="4.5" r="4.5" fill="#D9D9D9" transform="matrix(-1 0 0 1 140.681 217.062)"/>
		<circle cx="4.5" cy="4.5" r="4.5" fill="#D9D9D9" transform="matrix(-1 0 0 1 140.681 268.79)"/>
		<circle cx="4.5" cy="4.5" r="4.5" fill="#D9D9D9" transform="matrix(-1 0 0 1 140.681 321.305)"/>
		<circle cx="4.5" cy="4.5" r="4.5" fill="#D9D9D9" transform="matrix(-1 0 0 1 140.681 232.439)"/>
		<circle cx="4.5" cy="4.5" r="4.5" fill="#D9D9D9" transform="matrix(-1 0 0 1 140.681 284.167)"/>
		<circle cx="4.5" cy="4.5" r="4.5" fill="#D9D9D9" transform="matrix(-1 0 0 1 140.681 336.681)"/>
		<circle cx="3" cy="3" r="3" fill="#C4C4C4" transform="matrix(-1 0 0 1 139.181 203.504)"/>
		<circle cx="3" cy="3" r="3" fill="#C4C4C4" transform="matrix(-1 0 0 1 139.181 270.29)"/>
		<circle cx="3" cy="3" r="3" fill="#C4C4C4" transform="matrix(-1 0 0 1 139.181 322.805)"/>
	</g>
	<defs>
		<clipPath id="clip0_4_65">
			<path fill="#fff" d="M794 0H0v488h794z"/>
		</clipPath>
	</defs>
</svg>

<svg width="794" height="488" viewBox="0 0 794 488" fill="none" xmlns="http://www.w3.org/2000/svg">
<g clip-path="url(#clip0_4_65)">
<mask id="mask0_4_65" style="mask-type:luminance" maskUnits="userSpaceOnUse" x="0" y="0" width="794" height="488">
<path d="M794 0V457.877L757.91 488L721.818 457.877L685.728 488L649.636 457.877L613.546 488L577.455 457.877L541.364 488L505.273 457.877L469.182 488L433.091 457.877L397 488L360.91 457.877L324.817 488L288.727 457.877L252.635 488L216.545 457.877L180.454 488L144.363 457.877L108.273 488L72.182 457.877L36.09 488L0 457.877V0H794Z" fill="white"/>
</mask>
<g mask="url(#mask0_4_65)">
<path d="M794 0H0V488H794" fill="white"/>
<path d="M760.917 66.272C760.917 42.172 742.871 24.099 718.811 24.099C694.75 24.099 676.705 42.173 676.705 66.272C676.705 90.37 694.75 108.444 718.811 108.444C742.871 108.444 760.917 90.37 760.917 66.272ZM679.712 135.556V120.494H754.902V135.556H679.712ZM679.712 491.012V174.716H754.902V494.025H679.712M93.235 15.062H15.038V33.136H93.235V15.062ZM165.417 15.062H99.25V33.136H165.417V15.062ZM237.598 15.062H171.432V33.136H237.598V15.062ZM306.773 15.062H267.674V33.136H306.773V15.062ZM261.659 15.062H243.614V33.136H261.659V15.062ZM330.833 15.062H312.788V33.136H330.833V15.062ZM18.045 48.197V60.247H294.742V48.197H18.045ZM15.038 45.185H297.75V63.26H15.038V45.185Z" fill="#EAECF0"/>
<path d="M288.727 51.21H282.712V57.235H288.727V51.21Z" fill="#EAECF0"/>
<path d="M794 0V488H0V0H794ZM790.992 3.012H3.008V456.47L36.091 484.081L72.182 453.958L108.273 484.081L144.364 453.958L180.455 484.081L216.545 453.958L252.636 484.081L288.727 453.958L324.818 484.081L360.909 453.958L397 484.081L433.091 453.958L469.182 484.081L505.273 453.958L541.364 484.081L577.455 453.958L613.545 484.081L649.636 453.958L685.727 484.081L721.818 453.958L757.909 484.081L790.992 456.467V3.012Z" fill="#EAECF0"/>
<path d="M586.851 145.31H521.396V157H586.851V145.31ZM295.207 145H229.755V156.69H295.207V145Z" fill="#EAECF0" stroke="#EAECF0" stroke-width="1.214" stroke-linecap="round"/>
<path d="M645.561 87.358H519.041V108.143H645.561V87.358Z" fill="#C8CCD1" stroke="#C8CCD1" stroke-width="2.158" stroke-linecap="round"/>
<path d="M176.911 176.5H639.694C643.453 176.5 646.5 180.306 646.5 185V199.582C646.5 204.276 643.453 208.082 639.694 208.082H176.911C173.152 208.082 170.105 204.276 170.105 199.582V185C170.105 180.306 173.152 176.5 176.911 176.5Z" fill="#F9F9F9" stroke="#E6E6E6" stroke-width="3"/>
<path d="M176.911 395.5H639.694C643.453 395.5 646.5 399.306 646.5 404V418.582C646.5 423.276 643.453 427.082 639.694 427.082H176.911C173.152 427.082 170.105 423.276 170.105 418.582V404C170.105 399.306 173.152 395.5 176.911 395.5Z" fill="#F9F9F9" stroke="#E6E6E6" stroke-width="3"/>
<path d="M645 179H642V206H645V179ZM645 398H642V425H645V398Z" fill="#E6E6E6"/>
<path d="M638.254 199.874H622.652V194.124H638.254V199.874ZM460.526 189.336H444.924V183.586H460.526V189.336ZM441.533 189.336H417.113V183.586H441.533V189.336ZM309.931 189.336H239.519V183.586H309.931V189.336ZM413.721 189.336H313.325V183.586H413.721V189.336ZM382.512 199.874H365.553V194.124H382.512V199.874ZM362.162 199.874H345.203V194.124H362.162V199.874ZM341.811 199.874H330.28V194.124H341.811V199.874ZM326.886 199.874H305.18V194.124H326.886V199.874ZM301.791 199.874H282.798V194.124H301.791V199.874ZM455.773 199.874H385.904V194.124H455.773V199.874ZM236.225 189.336H219.266V183.586H236.225V189.336ZM215.875 189.336H198.916V183.586H215.875V189.336ZM195.525 189.336H183.993V183.586H195.525V189.336ZM564.993 189.336H548.034V183.586H564.993V189.336ZM544.643 189.336H527.684V183.586H544.643V189.336ZM524.292 189.336H512.76V183.586H524.292V189.336ZM509.367 189.336H487.66V183.586H509.367V189.336ZM484.272 189.336H465.279V183.586H484.272V189.336ZM619.261 199.874H594.841V194.124H619.261V199.874ZM487.659 199.874H460.525V194.124H487.659V199.874ZM591.448 199.874H491.053V194.124H591.448V199.874ZM638.254 189.336H568.385V183.586H638.254V189.336ZM638.254 418.874H622.652V413.124H638.254V418.874ZM460.526 408.336H444.924V402.586H460.526V408.336ZM441.533 408.336H417.113V402.586H441.533V408.336ZM309.931 408.336H239.519V402.586H309.931V408.336ZM413.721 408.336H313.325V402.586H413.721V408.336ZM382.512 418.874H365.553V413.124H382.512V418.874ZM362.162 418.874H345.203V413.124H362.162V418.874ZM341.811 418.874H330.28V413.124H341.811V418.874ZM326.886 418.874H305.18V413.124H326.886V418.874ZM301.791 418.874H282.798V413.124H301.791V418.874ZM455.773 418.874H385.904V413.124H455.773V418.874ZM236.225 408.336H219.266V402.586H236.225V408.336ZM215.875 408.336H198.916V402.586H215.875V408.336ZM195.525 408.336H183.993V402.586H195.525V408.336ZM564.993 408.336H548.034V402.586H564.993V408.336ZM544.643 408.336H527.684V402.586H544.643V408.336ZM524.292 408.336H512.76V402.586H524.292V408.336ZM509.367 408.336H487.66V402.586H509.367V408.336ZM484.272 408.336H465.279V402.586H484.272V408.336ZM619.261 418.874H594.841V413.124H619.261V418.874ZM487.659 418.874H460.525V413.124H487.659V418.874ZM591.448 418.874H491.053V413.124H591.448V418.874ZM638.254 408.336H568.385V402.586H638.254V408.336ZM560.076 336.49H547.644V330.49H560.076V336.49ZM516.564 336.49H340.982V330.49H516.564V336.49ZM516.564 310.49H343.054V304.49H516.564V310.49ZM504.823 323.49H331.313V317.49H504.823V323.49ZM638.118 336.49H594.607V330.49H638.118V336.49ZM638.118 310.49H594.607V304.49H638.118V310.49ZM532.449 323.49H508.277V317.49H532.449V323.49ZM591.154 336.49H563.528V330.49H591.154V336.49ZM544.19 336.49H520.018V330.49H544.19V336.49ZM638.118 323.49H535.902V317.49H638.118V323.49ZM591.154 310.49H520.018V304.49H591.154V310.49ZM638.119 297.49H622.233V291.49H638.119V297.49ZM560.075 258.49H547.643V252.49H560.075V258.49ZM638.119 232.49H622.233V226.49H638.119V232.49ZM563.528 284.49H546.262V278.49H563.528V284.49ZM542.808 284.49H525.541V278.49H542.808V284.49ZM522.09 284.49H510.349V278.49H522.09V284.49ZM506.895 284.49H354.794V278.49H506.895V284.49ZM563.528 271.49H447.945V265.49H563.528V271.49ZM516.563 258.49H340.981V252.49H516.563V258.49ZM610.492 271.49H566.981V265.49H610.492V271.49ZM516.563 232.49H343.053V226.49H516.563V232.49ZM504.823 245.49H331.312V239.49H504.823V245.49ZM638.119 258.49H594.608V252.49H638.119V258.49ZM638.119 271.49H613.946V265.49H638.119V271.49ZM618.779 232.49H594.607V226.49H618.779V232.49ZM532.449 245.49H508.277V239.49H532.449V245.49ZM591.154 258.49H563.528V252.49H591.154V258.49ZM544.19 258.49H520.018V252.49H544.19V258.49ZM351.341 284.49H332.002V278.49H351.341V284.49ZM618.779 297.49H593.916V291.49H618.779V297.49ZM354.794 297.49H327.168V291.49H354.794V297.49ZM590.464 297.49H358.248V291.49H590.464V297.49ZM638.119 245.49H535.903V239.49H638.119V245.49ZM638.119 284.49H566.982V278.49H638.119V284.49ZM591.154 232.49H520.018V226.49H591.154V232.49ZM638.118 375.49H622.233V369.49H638.118V375.49ZM563.527 362.49H546.261V356.49H563.527V362.49ZM542.808 362.49H525.541V356.49H542.808V362.49ZM522.09 362.49H510.349V356.49H522.09V362.49ZM506.894 362.49H354.793V356.49H506.894V362.49ZM351.341 362.49H332.002V356.49H351.341V362.49ZM618.779 375.49H593.916V369.49H618.779V375.49ZM354.793 375.49H327.167V369.49H354.793V375.49ZM590.464 375.49H358.248V369.49H590.464V375.49ZM638.118 362.49H566.981V356.49H638.118V362.49Z" fill="#C4C4C4"/>
</g>
<rect x="-1.5" y="1.5" width="127.794" height="164.662" rx="10.5" transform="matrix(-1 0 0 1 297.899 218.153)" fill="#F9F9F9" stroke="#E6E6E6" stroke-width="3"/>
<rect x="-1.5" y="1.5" width="127.794" height="177.836" rx="10.5" transform="matrix(-1 0 0 1 148.741 174.777)" fill="#F9F9F9" stroke="#3366CC" stroke-width="3"/>
<rect width="95.2935" height="53.1425" transform="matrix(-1 0 0 1 284.065 231.024)" fill="#EAECF0"/>
<rect width="95.2935" height="6" transform="matrix(-1 0 0 1 284.065 303.217)" fill="#C4C4C4"/>
<rect width="48.6688" height="6" transform="matrix(-1 0 0 1 284.065 315.291)" fill="#C4C4C4"/>
<rect width="90.0335" height="6" transform="matrix(-1 0 0 1 284.065 327.365)" fill="#C4C4C4"/>
<rect width="90.0335" height="6" transform="matrix(-1 0 0 1 141.827 185.127)" fill="#C4C4C4"/>
<rect width="39.7679" height="6" transform="matrix(-1 0 0 1 127.846 203.504)" fill="#C4C4C4"/>
<rect width="39.7679" height="6" transform="matrix(-1 0 0 1 127.846 218.562)" fill="#C4C4C4"/>
<rect width="39.7679" height="6" transform="matrix(-1 0 0 1 127.846 270.29)" fill="#C4C4C4"/>
<rect width="39.7679" height="6" transform="matrix(-1 0 0 1 127.846 322.805)" fill="#C4C4C4"/>
<rect width="39.7679" height="6" transform="matrix(-1 0 0 1 127.846 233.939)" fill="#C4C4C4"/>
<rect width="39.7679" height="6" transform="matrix(-1 0 0 1 127.846 285.667)" fill="#C4C4C4"/>
<rect width="39.7679" height="6" transform="matrix(-1 0 0 1 127.846 338.181)" fill="#C4C4C4"/>
<rect width="77.7332" height="6" transform="matrix(-1 0 0 1 141.827 256.815)" fill="#C4C4C4"/>
<rect width="105.559" height="6" transform="matrix(-1 0 0 1 141.827 309.143)" fill="#C4C4C4"/>
<rect width="33.7322" height="6" transform="matrix(-1 0 0 1 284.065 339.439)" fill="#C4C4C4"/>
<rect width="48.6688" height="6" transform="matrix(-1 0 0 1 284.065 351.513)" fill="#C4C4C4"/>
<rect width="33.7322" height="6" transform="matrix(-1 0 0 1 284.065 363.587)" fill="#C4C4C4"/>
<rect width="33.7322" height="6" transform="matrix(-1 0 0 1 244.256 363.587)" fill="#C4C4C4"/>
<circle cx="4.5" cy="4.5" r="4.5" transform="matrix(-1 0 0 1 140.681 202.004)" fill="#D9D9D9"/>
<circle cx="4.5" cy="4.5" r="4.5" transform="matrix(-1 0 0 1 140.681 217.062)" fill="#D9D9D9"/>
<circle cx="4.5" cy="4.5" r="4.5" transform="matrix(-1 0 0 1 140.681 268.79)" fill="#D9D9D9"/>
<circle cx="4.5" cy="4.5" r="4.5" transform="matrix(-1 0 0 1 140.681 321.305)" fill="#D9D9D9"/>
<circle cx="4.5" cy="4.5" r="4.5" transform="matrix(-1 0 0 1 140.681 232.439)" fill="#D9D9D9"/>
<circle cx="4.5" cy="4.5" r="4.5" transform="matrix(-1 0 0 1 140.681 284.167)" fill="#D9D9D9"/>
<circle cx="4.5" cy="4.5" r="4.5" transform="matrix(-1 0 0 1 140.681 336.681)" fill="#D9D9D9"/>
<circle cx="3" cy="3" r="3" transform="matrix(-1 0 0 1 139.181 203.504)" fill="#C4C4C4"/>
<circle cx="3" cy="3" r="3" transform="matrix(-1 0 0 1 139.181 270.29)" fill="#C4C4C4"/>
<circle cx="3" cy="3" r="3" transform="matrix(-1 0 0 1 139.181 322.805)" fill="#C4C4C4"/>
</g>
<defs>
<clipPath id="clip0_4_65">
<rect width="794" height="488" fill="white" transform="matrix(-1 0 0 1 794 0)"/>
</clipPath>
</defs>
</svg>
